app/img/up.svg

<svg width="74" height="74" viewBox="0 0 74 74" fill="none" xmlns="http://www.w3.org/2000/svg">
<g filter="url(#filter0_d)">
<circle cx="37" cy="33" r="25" fill="#44C697"/>
</g>
<path d="M37.7071 24.5654C37.3166 24.1749 36.6834 24.1749 36.2929 24.5654L29.9289 30.9294C29.5384 31.3199 29.5384 31.9531 29.9289 32.3436C30.3195 32.7341 30.9526 32.7341 31.3431 32.3436L37 26.6868L42.6569 32.3436C43.0474 32.7341 43.6805 32.7341 44.0711 32.3436C44.4616 31.9531 44.4616 31.3199 44.0711 30.9294L37.7071 24.5654ZM38 41.1816L38 25.2725L36 25.2725L36 41.1816L38 41.1816Z" fill="white"/>
<defs>
<filter id="filter0_d" x="0" y="0" width="74" height="74" filterUnits="userSpaceOnUse" color-interpolation-filters="sRGB">
<feFlood flood-opacity="0" result="BackgroundImageFix"/>
<feColorMatrix in="SourceAlpha" type="matrix" values="0 0 0 0 0 0 0 0 0 0 0 0 0 0 0 0 0 0 127 0"/>
<feOffset dy="4"/>
<feGaussianBlur stdDeviation="6"/>
<feColorMatrix type="matrix" values="0 0 0 0 0.508333 0 0 0 0 0.508333 0 0 0 0 0.508333 0 0 0 0.2 0"/>
<feBlend mode="normal" in2="BackgroundImageFix" result="effect1_dropShadow"/>
<feBlend mode="normal" in="SourceGraphic" in2="effect1_dropShadow" result="shape"/>
</filter>
</defs>
</svg>

<svg width="74" height="74" fill="none" xmlns="http://www.w3.org/2000/svg"><g filter="url(#filter0_d)"><circle cx="37" cy="33" r="25" fill="#44C697"/></g><path d="M37.707 24.565a1 1 0 00-1.414 0l-6.364 6.364a1 1 0 001.414 1.415L37 26.687l5.657 5.657a1 1 0 001.414-1.415l-6.364-6.364zM38 41.182v-15.91h-2v15.91h2z" fill="#fff"/><defs><filter id="filter0_d" x="0" y="0" width="74" height="74" filterUnits="userSpaceOnUse" color-interpolation-filters="sRGB"><feFlood flood-opacity="0" result="BackgroundImageFix"/><feColorMatrix in="SourceAlpha" values="0 0 0 0 0 0 0 0 0 0 0 0 0 0 0 0 0 0 127 0"/><feOffset dy="4"/><feGaussianBlur stdDeviation="6"/><feColorMatrix values="0 0 0 0 0.508333 0 0 0 0 0.508333 0 0 0 0 0.508333 0 0 0 0.2 0"/><feBlend in2="BackgroundImageFix" result="effect1_dropShadow"/><feBlend in="SourceGraphic" in2="effect1_dropShadow" result="shape"/></filter></defs></svg>
